!!!!SEGMENT: pl-wn--sd-xvi-o-284_anonim--kancjonal-zamoyskich-piesn-nowa-o-krewkosci-wielkiej-kazdego-czlowieka-poczatek-wszelakiej-sprawy.krn
!!!cenid: 15xx:839
!!!COM: Anonim
!!!COM-rismID: pe30004985
!!!CDT:
!!!CNT:
!!!GTL: Kancjonał Zamoyskich
!!!OTL: Pieśń nowa o krewkości wielkiej każdego człowieka/Początek wszelakiej sprawy
!!!PDT: 1558
!!!AGN:
!!!SMS-siglum: PL-Wn
!!!SMS-shelfmark: SD XVI.O.284
!!!SMS-shelfwork: G
!!!SMS-variant:
!!!SMS-altvar:
!!!NIFC-rismSourceID: 990072131
!!!NIFC-rismChildID: 990072131
!!!NIFC-islandoraID: none
!!!URL-pdf-islandora:
!!!URL-scan: https://polona.pl/item/piesn-nowa-o-krewkosci-wielkiei-kazdego-czlowieka-a-kthorym-obyczaiem-przysc-moze-ku,MTE3MTc1NA/3 @EN{Scan on Polona} @PL{Skany w portalu Polona}
!!!ONB-nifc: UWAGA: proszę zapisywać tylko teksty występujące bezpośrednio pod nutami
!!!AIN: 1 alto 1 bass 1 soprn 1 tenor
!!!key: d:dor
**kern	**text	**mod-text	**kern	**text	**mod-text	**kern	**text	**mod-text	**kern	**text	**mod-text
*part4	*part4	*part4	*part3	*part3	*part3	*part2	*part2	*part2	*part1	*part1	*part1
*staff4	*staff4	*staff4	*staff3	*staff3	*staff3	*staff2	*staff2	*staff2	*staff1	*staff1	*staff1
*I"BAS.	*	*	*I"TENOR:	*	*	*I"ALT.	*	*	*I"CANTVS.	*	*
*mI"Basso	*	*	*mI"Tenore	*	*	*mI"Alto	*	*	*mI"Soprano	*	*
*I'B	*	*	*I'T	*	*	*I'A	*	*	*I'S	*	*
*Ibass	*	*	*Itenor	*	*	*Ialto	*	*	*Isoprn	*	*
*ICvox	*	*	*ICvox	*	*	*ICvox	*	*	*ICvox	*	*
*clefF4	*	*	*clefC4	*	*	*clefC3	*	*	*clefC1	*	*
*	*	*	*mclefGv2	*	*	*mclefGv2	*	*	*mclefG2	*	*
*k[b-]	*	*	*k[b-]	*	*	*k[b-]	*	*	*k[b-]	*	*
*d:dor	*	*	*d:dor	*	*	*d:dor	*	*	*d:dor	*	*
*M2/1	*	*	*M2/1	*	*	*M2/1	*	*	*M2/1	*	*
*met(C|)	*	*	*met(C|)	*	*	*met(C|)	*	*	*met(C|)	*	*
*mmet(c|)	*	*	*mmet(c|)	*	*	*mmet(c|)	*	*	*mmet(c|)	*	*
=1	=1	=1	=1	=1	=1	=1	=1	=1	=1	=1	=1
*xywh-#6:2795,355,2218,778	*	*	*xywh-#6:740,411,1982,784	*	*	*xywh-#5:2769,312,2194,879	*	*	*xywh-#5:804,457,1899,814	*	*
2D/	Po-	Po-	2A/	Po-	Po-	2f\	Po-	Po-	2a\	Po-	Po-
2D/	-ꜩą-	-czą-	2A/	-ꜩą-	-czą-	2f\	-ꜩą-	-czą-	2a\	-ꜩą-	-czą-
1A	-tek	-tek	1c	-tek	-tek	1e	-tek	-tek	2.a\	-tek	-tek
.	.	.	.	.	.	.	.	.	4g\	.	.
=2	=2	=2	=2	=2	=2	=2	=2	=2	=2	=2	=2
1D	wſſe-	wsze-	1d	wſſe-	wsze-	1f	wſſe-	wsze-	4f/	wſſe-	wsze-
.	.	.	.	.	.	.	.	.	4g/	.	.
.	.	.	.	.	.	.	.	.	4a\	.	.
.	.	.	.	.	.	.	.	.	4b-\	.	.
!	!	!	!LO:SIC:s=2e	!	!	!	!	!	!	!	!
2C/	-la-	-la-	2e#X\	-lá-	-la-	2g\	-lá-	-la-	2cc\	-lá-	-la-
2D/	-kiey	-kiej	2d\	-kiey	-kiej	2f\	-kiey	-kiej	2a\	-kiey	-kiej
=3	=3	=3	=3	=3	=3	=3	=3	=3	=3	=3	=3
1A	ſpra-	spra-	1c	ſpra-	spra-	1e	ſpra-	spra-	1a	ſprá-	spra-
1D	-wy	-wy	1A	-wy	-wy	1d	-wy	-wy	1f	-wy/	-wy
=4	=4	=4	=4	=4	=4	=4	=4	=4	=4	=4	=4
2C/	w i-	w_i-	2c\	w i-	w_i-	2G/	w i-	w_i-	2e/	wi-	w_i-
!LO:SIC:v:t=custos E-	!	!	!LO:SIC:v:t=custos B-	!	!	!	!	!	!	!	!
2C/	-miꬳ	-mię	2c\	-miꬳ	-mię	2G/	-miꬳ	-mię	2g/	-miꬳ	-mię
*xywh-#6:2789,1098,2017,519	*	*	*xywh-#6:722,1147,1988,513	*	*	*	*	*	*	*	*
!LO:LB:g=original	!	!	!LO:LB:g=original	!	!	!	!	!	!	!	!
!	!	!	!	!	!	!LO:SIC:v:t=custos c	!	!	!LO:SIC:v:t=custos f	!	!
2E-X\	pá-	Pa-	2B-\	pá-	Pa-	2G/	pá-	Pa-	2g/	pá-	Pa-
*	*	*	*	*	*	*xywh-#5:2758,1155,1899,525	*	*	*xywh-#5:792,1242,1917,501	*	*
!	!	!	!	!	!	!LO:LB:g=original	!	!	!LO:LB:g=original	!	!
2F\	-ná	-na	2A/	-ná	-na	2c/	ná	-na	1f	-ná	-na
=5	=5	=5	=5	=5	=5	=5	=5	=5	=5	=5	=5
1C	ſwe-	swe-	1G	ſwe-	swe-	1c	ſwe-	swe-	.	.	.
.	.	.	.	.	.	.	.	.	2e/	ſwe-	swe-
1D	-go	-go	1F	-go	-go	1A	-go	-go	1f	-go	-go
=6	=6	=6	=6	=6	=6	=6	=6	=6	=6	=6	=6
2F\	ꜩło-	czło-	2A/	ꜩlo-	czło-	2f\	ꜩło-	czło-	2cc\	ꜩło-	czło-
2F\	-wiek	-wiek	2A/	-wiek	-wiek	2f\	-wiek	-wiek	2cc\	-wiek	-wiek
1A	krʒeſ-	krze-	1c	krʒeſ-	krze-	1e	krʒeſ-	krze-	1a	krʒeſ-	krze-
=7	=7	=7	=7	=7	=7	=7	=7	=7	=7	=7	=7
1F	-ci-	-ści-	1A	-ci-	-ści-	1f	-ci-	-ści-	2.cc\	-ci-	-ści-
.	.	.	.	.	.	.	.	.	4b-\	.	-jań-
2F\	-áń-	-jań-	2c\	-áń-	-jań-	2f\	-ań-	-jań-	2a\	-ań-	-ski
!LO:SIC:v:t=custos B-	!	!	!	!	!	!	!	!	!	!	!
2G\	-ſki	-ski	2B-\	-ſki	-ski	2d\	ſki	-ski	2.dd\	-ſki	pra-
!LO:LB:g=original	!	!	!	!	!	!	!	!	!	!	!
=8	=8	=8	=8	=8	=8	=8	=8	=8	=8	=8	=8
*xywh-#6:2777,1594,2023,525	*	*	*	*	*	*	*	*	*	*	*
2B-\	pra-	pra-	1G	pra=-	pra-	1.d	pra-	pra-	.	.	.
!	!	!	!	!	!	!	!	!	!LO:SIC:v:t=custos b-	!	!
.	.	.	.	.	.	.	.	.	4cc\	.	.
*	*	*	*	*	*	*	*	*	*xywh-#5:798,1708,1929,513	*	*
!	!	!	!	!	!	!	!	!	!LO:LB:g=original	!	!
1G	.	.	.	.	.	.	.	.	2b-\	prá-	.
.	.	.	1D	-wy/	-wy	.	.	.	2.a\	-wy	-wy
!	!	!	!	!	!	!LO:SIC:v:t=custos f	!	!	!	!	!
4F\	-wy/	-wy	.	.	.	2f\	-wy	-wy	.	.	.
4E\	.	.	.	.	.	.	.	.	4g\	.	.
!	!	!	!	!	!	!LO:LB:g=original	!	!	!	!	!
=9	=9	=9	=9	=9	=9	=9	=9	=9	=9	=9	=9
*	*	*	*	*	*	*xywh-#5:2746,1638,1899,584	*	*	*	*	*
!	!	!	!LO:SIC:v:t=custos A	!	!	!	!	!	!	!	!
2D/	ma	ma	2A/	ma	ma	2f\	ma	ma	2f/	ma	ma
*	*	*	*xywh-#6:710,1619,2041,572	*	*	*	*	*	*	*	*
!	!	!	!LO:LB:g=original	!	!	!	!	!	!	!	!
2AA/	ꜩa-	cza-	2A/	ꜩá-	cza-	2c/	ꜩá-	cza-	2e/	ꜩa-	cza-
2C/	-ſu	-ſu	2G/	-ſu	-ſu	2c/	ſu	-ſu	2e/	-ſu	-ſu
2D/	kaʒ̇-	kaʒ̇-	2F/	kaʒ̇-	kaʒ̇-	1A/	káʒ̇-	kaʒ̇-	1d	kaʒ̇-	kaʒ̇-
=10	=10	=10	=10	=10	=10	=10	=10	=10	=10	=10	=10
1GG	-de-	-de-	1D	-de-	-de-	.	.	.	.	.	.
.	.	.	.	.	.	4G/	-de-	-de-	4c/	-de-	-de-
.	.	.	.	.	.	4F/	.	.	4B-/	.	.
1AA	-[g]o	-go	1C	-go	-go	2E/	-go	-go	2c/	-go	-go
.	.	.	.	.	.	1A	na-	na-	1cc	na-	na-
=11	=11	=11	=11	=11	=11	=11	=11	=11	=11	=11	=11
2D/	na-	na-	2F/	na-	na-	.	.	.	.	.	.
2E-X\	-boʒ̇-	-boʒ̇-	2G/	-boʒ̇-	-boʒ̇-	2G/	-boʒ̇-	-boʒ̇-	2b-\	-boʒ̇-	-boʒ̇-
1F	-nym	-nem	1A	-nym	-nem	2F/	-nym	-nem	1.a	-nem	-nem
.	.	.	.	.	.	1f	ſer-	.	.	.	.
=12	=12	=12	=12	=12	=12	=12	=12	=12	=12	=12	=12
2F\	ſer-	ser-	1c	ſer-	ser-	.	.	.	.	.	.
2C/	-cem	.	.	.	.	2e\	-cem	ser-	2g/	ſer-	ser-
!	!	!	!	!	!	!LO:SIC:v:t=custos f	!	!	!	!	!
2E-X\	po-	-cem	2B-\	-ce(m)	-cem	2g\	po-	-cem	2g/	-cem	-cem
*	*	*	*	*	*	*xywh-#5:2718,2156,1923,1351	*	*	*	*	*
!LO:SIC:v:t=custos D	!	!	!LO:SIC:v:t=custos F	!	!	!	!	!	!	!	!
!	!	!	!	!	!	!LO:LB:g=original	!	!	!	!	!
2F\	-ꜩy-	po-	2A\	po-	po-	2f\	-ꜩy-	po-	2.a\	po-	po-
!LO:LB:g=original	!	!	!LO:LB:g=original	!	!	!	!	!	!	!	!
=13	=13	=13	=13	=13	=13	=13	=13	=13	=13	=13	=13
*xywh-#6:2775,2097,2035,932	*	*	*xywh-#6:751,2185,1917,1126	*	*	*	*	*	*	*	*
1D	-nác̄	-czy-	2.F/	-ꜩy-	-czy-	2f\	-nác̄	.	.	.	.
!	!	!	!	!	!	!	!	!	!LO:SIC:v:t=custos f	!	!
.	.	.	.	.	.	.	.	.	4g\	-ꜩy-	.
*	*	*	*	*	*	*	*	*	*xywh-#5:802,2197,1941,1238	*	*
!	!	!	!	!	!	!	!	!	!LO:LB:g=original	!	!
.	.	.	.	.	.	1d	dla	-czy-	2f/	-nác̄	-czy-
.	.	.	4G/	-nác̄	.	.	.	.	.	.	.
1AA	dla	-nać	1A	dla	-nać	.	.	.	1e	dla	-nać
.	.	.	.	.	.	2c/	dá-	-nać	.	.	.
=14	=14	=14	=14	=14	=14	=14	=14	=14	=14	=14	=14
2C/	da-	dla	2G/	da-	dla	2c/	-ru	dla	2e/	dá-	dla
2D/	-ru	da-	2F/	-ru	da-	2A/	du-	da-	2d/	-ru	da-
2AA/	du-	-ru	2E/	du-	-ru	2c/	-chá	-ru	2e/	du-	-ru
2D/	-cha	Du-	2D/	-cha	Du-	2.d\	ſwie-	Du-	2f/	-chá	Du-
=15	=15	=15	=15	=15	=15	=15	=15	=15	=15	=15	=15
2D/	ſwie.-	-cha	2F/	ſwie-	-cha	.	.	.	2f/	ſwie-	-cha
.	.	.	.	.	.	4c/	.	-cha	.	.	.
2GG/	.	Świę-	2G/	.	Świę-	2B-/	.	Świę-	1d	.	Świę-
1AA	-[te]-	-te-	1E	-te-	-te-	1A	-te-	-te-	.	.	.
!	!	!	!	!	!	!	!	!	!LO:SIC:s=2c#i	!	!
.	.	.	.	.	.	.	.	.	2c/	-te-	-te-
=16	=16	=16	=16	=16	=16	=16	=16	=16	=16	=16	=16
!LO:SIC:s=0D;	!	!	!LO:SIC:s=0D;	!	!	!LO:SIC:s=0A;	!	!	!LO:SIC:s=0d;	!	!
0Dl/	-[go]	-go.	0Dl	-go.	-go.	0Al	-go.	-go.	0dl	-[g]o.	-go.
==	==	==	==	==	==	==	==	==	==	==	==
*-	*-	*-	*-	*-	*-	*-	*-	*-	*-	*-	*-
!!!system-decoration: [(*)]
!!LO:MO:ori
!!!RDF**kern: l = terminal long
!!LO:MO:mod
!! !!!RDF**kern: i = editorial accidental
!!LO:MO:end
!!!filter-modern: shed -e "s/TX(.*):t=P:/tx$1:t=P:/LG" | shed -e "s/^custos:/Xcustos:/I" | sic -sq | modori -m | autostem -r | tie -s | humtr -p | shed -e "s/-//B"
!!!ENC: Marta Opryszak
!!!END: 2022-05-17
!!!ENC: Natalia Wrzos
!!!END: 2022-06-01
!!!ENC-modern: Andrzej Kubiczek
!!!END-modern: 2022-07-25
!!!IIIF: https://polona.pl/iiif/item/MTE3MTc1NA/manifest.json
!!!ENC-iiif: Emilia Ziętek
!!!END-iiif: 2022-09-03
!!!YEC: Copyright 2022 Narodowy Instytut Fryderyka Chopina (https://polishscores.org)
!!!YEM: License CC-BY-4.0 (https://creativecommons.org/licenses/by/4.0)
